storage/app/icons/phosphoricons/fill/hash-straight-fill.svg

<svg xmlns="http://www.w3.org/2000/svg" fill="currentColor" viewBox="0 0 256 256"><path d="M112 112h32v32h-32Zm112-64v160a16 16 0 0 1-16 16H48a16 16 0 0 1-16-16V48a16 16 0 0 1 16-16h160a16 16 0 0 1 16 16m-64 96v-32h32a8 8 0 0 0 0-16h-32V64a8 8 0 0 0-16 0v32h-32V64a8 8 0 0 0-16 0v32H64a8 8 0 0 0 0 16h32v32H64a8 8 0 0 0 0 16h32v32a8 8 0 0 0 16 0v-32h32v32a8 8 0 0 0 16 0v-32h32a8 8 0 0 0 0-16Z"/></svg>

<svg xmlns="http://www.w3.org/2000/svg" viewBox="0 0 256 256" fill="currentColor"><path d="M112,112h32v32H112ZM224,48V208a16,16,0,0,1-16,16H48a16,16,0,0,1-16-16V48A16,16,0,0,1,48,32H208A16,16,0,0,1,224,48Zm-64,96V112h32a8,8,0,0,0,0-16H160V64a8,8,0,0,0-16,0V96H112V64a8,8,0,0,0-16,0V96H64a8,8,0,0,0,0,16H96v32H64a8,8,0,0,0,0,16H96v32a8,8,0,0,0,16,0V160h32v32a8,8,0,0,0,16,0V160h32a8,8,0,0,0,0-16Z"/></svg>
